!!!!SEGMENT: pl-wtm--r-130-m--006_moniuszko-stanislaw--msza-es-dur-benedictus.krn
!!!cenid: 18xx:2699
!!!COM: Moniuszko, Stanisław
!!!COM-rismid: pe30008351
!!!CDT: 1819/05/05-1872/06/04
!!!CNT: Polish
!!!OPR: Msza Es-dur
!!!OTL: Benedictus
!!!OMV: 006
!!!PDT: 1865
!!!AGN: Sacred; Mass
!!!SMS-siglum: PL-Wtm
!!!SMS-shelfmark: R 130/M
!!!SMS-shelfwork: 001-006 M
!!!SMS-variant:
!!!SMS-altvar:
!!!NIFC-rismid: 1001095073
!!!URL-scan: http://repozytorium.nifc.pl/skany/pl-wtm-nut--r130m
!!!ONB-nifc: UWAGA: części Mszy: 1. Kyrie, 2. Gloria, 3. Gratias, 4. Credo, 5. Sanctus, 6. Benedictus, 7. Agnus Dei
!!!OMD: Moderato.
!!!AIN: 1 alto 1 cbass 1 cello 1 empty 1 organ 1 physh 1 soprn 1 tenor 1 viola 2 violn
!!!key:
**kern	**dynam	**kern	**dynam	**kern	**dynam	**kern	**dynam	**kern	**dynam	**kern	**kern	**kern	**kern	**dynam	**kern	**text	**text	**dynam	**kern	**text	**dynam	**kern	**text	**dynam	**kern	**text	**dynam
*part11	*part11	*part10	*part10	*part9	*part9	*part8	*part8	*part7	*part7	*part6	*part6	*part5	*part5	*part5	*part4	*part4	*part4	*part4	*part3	*part3	*part3	*part2	*part2	*part2	*part1	*part1	*part1
*staff13	*	*staff12	*	*staff11	*	*staff10	*	*staff9	*	*staff8	*staff7	*staff6	*staff5	*	*staff4	*staff4	*staff4	*	*staff3	*staff3	*	*staff2	*staff2	*	*staff1	*staff1	*
*Icbass	*	*Icello	*	*Iviola	*	*Ivioln	*	*Ivioln	*	*Iphysh	*Iphysh	*Iorgan	*Iorgan	*	*Iempty	*	*	*	*Itenor	*	*	*Ialto	*	*	*Isoprn	*	*
*I"[Contrabassi]	*	*I"[Violoncelli]	*	*I"[Viola]	*	*I"[Violino 2]	*	*I"V. 1.	*	*I"Physharmonica	*I"Physharmonica	*I"Organ.	*I"Organ.	*	*I"[Basso]	*	*	*	*I"[Tenore]	*	*	*I"[Alto]	*	*	*I"[Soprano]	*	*
*clefF4	*	*clefF4	*	*clefC3	*	*clefG2	*	*clefG2	*	*clefF4	*clefG2	*clefF4	*clefG2	*	*clefF4	*	*	*	*clefG2	*	*	*clefG2	*	*	*clefG2	*	*
*Trd0c0	*	*	*	*	*	*	*	*	*	*	*	*	*	*	*	*	*	*	*ITrd7c12	*	*	*	*	*	*	*	*
*k[b-]	*	*k[b-]	*	*k[b-]	*	*k[b-]	*	*k[b-]	*	*k[b-]	*k[b-]	*k[b-]	*k[b-]	*	*k[b-]	*	*	*	*k[b-]	*	*	*k[b-]	*	*	*k[b-]	*	*
*F:	*	*F:	*	*F:	*	*F:	*	*F:	*	*F:	*F:	*F:	*F:	*	*F:	*	*	*	*F:	*	*	*F:	*	*	*F:	*	*
*M4/4	*	*M4/4	*	*M4/4	*	*M4/4	*	*M4/4	*	*M4/4	*M4/4	*M4/4	*M4/4	*	*M4/4	*	*	*	*M4/4	*	*	*M4/4	*	*	*M4/4	*	*
*met(c)	*	*met(c)	*	*met(c)	*	*met(c)	*	*met(c)	*	*met(c)	*met(c)	*met(c)	*met(c)	*	*met(c)	*	*	*	*met(c)	*	*	*met(c)	*	*	*met(c)	*	*
*all\right	*	*all\right	*	*all\right	*	*all\right	*	*all\right	*	*all\right	*all\right	*all\right	*all\right	*	*all\right	*	*	*	*all\right	*	*	*all\right	*	*	*all\right	*	*
=1	=1	=1	=1	=1	=1	=1	=1	=1	=1	=1	=1	=1	=1	=1	=1	=1	=1	=1	=1	=1	=1	=1	=1	=1	=1	=1	=1
*	*	*	*	*	*	*	*	*	*	*	*	*^	*	*	*	*	*	*	*	*	*	*	*	*	*	*	*
*	*	*	*	*	*	*	*	*	*	*	*	*2\right	*	*	*	*	*	*	*	*	*	*	*	*	*	*	*	*
1r	.	1r	.	1r	.	1r	.	1r	.	1ryy	1ryy	2D\	1r	2A</ 2d 2f	.	1r	.	.	.	1r	.	.	1r	.	.	1r	.	.
.	.	.	.	.	.	.	.	.	.	.	.	2C\	.	2c/ 2e 2g	.	.	.	.	.	.	.	.	.	.	.	.	.	.
*	*	*	*	*	*	*	*	*	*	*	*	*v	*v	*	*	*	*	*	*	*	*	*	*	*	*	*	*	*
=2	=2	=2	=2	=2	=2	=2	=2	=2	=2	=2	=2	=2	=2	=2	=2	=2	=2	=2	=2	=2	=2	=2	=2	=2	=2	=2	=2
1r	.	1r	.	2r	.	2r	.	1r	.	1ryy	1ryy	2FF\ 2F	2c/ 2f 2a	.	1r	.	.	.	2r	.	.	2r	.	.	4r	.	.
.	.	.	.	.	.	.	.	.	.	.	.	.	.	.	.	.	.	.	.	.	.	.	.	.	8a\	Be-	.
.	.	.	.	.	.	.	.	.	.	.	.	.	.	.	.	.	.	.	.	.	.	.	.	.	8cc\	-ne-	.
*	*	*	*	*	*	*	*	*	*	*	*	*	*	*	*	*	*	*	*	*	*	*	*	*	*2\right	*	*
.	.	.	.	4r	.	4r	.	.	.	.	.	2r	2r	.	.	.	.	.	4r	.	.	4r	.	.	[2cc\	-di-	.
!	!	!	!	!	!LO:DY:b:rj	!	!LO:DY:b:rj	!	!	!	!	!	!	!	!	!	!	!	!	!	!	!	!	!	!	!	!
.	.	.	.	8d|\L	p	8f|/L	p	.	.	.	.	.	.	.	.	.	.	.	8d\	Be-	.	8f/	Be-	.	.	.	.
*	*	*	*	*	*	*	*	*	*	*	*	*	*	*	*	*	*	*	*	*ij	*	*	*	*	*	*	*
.	.	.	.	8f|\J	.	8a|/J	.	.	.	.	.	.	.	.	.	.	.	.	8f\	-ne-	.	8a/	-ne-	.	.	.	.
=3	=3	=3	=3	=3	=3	=3	=3	=3	=3	=3	=3	=3	=3	=3	=3	=3	=3	=3	=3	=3	=3	=3	=3	=3	=3	=3	=3
1r	.	1r	.	(4e\	.	(4g/	.	4r	.	1ryy	1ryy	1r	1r	.	1r	.	.	.	4e\	-di-	.	4g/	-di-	.	4cc\]	.	.
!	!	!	!	!	!	!	!	!	!LO:DY:b:rj	!	!	!	!	!	!	!	!	!	!	!	!	!	!	!	!	!	!
.	.	.	.	8f\)	.	8a/)	.	(8a\L	p	.	.	.	.	.	.	.	.	.	8f\	-ctus	.	8a/	-ctus	.	8a\	-ctus	.
.	.	.	.	8r	.	8r	.	8cc\J)	.	.	.	.	.	.	.	.	.	.	8r	.	.	8r	.	.	8cc\	qui	.
*	*	*	*	*	*	*	*	*2\right	*	*	*	*	*	*	*	*	*	*	*	*	*	*	*	*	*	*	*
.	.	.	.	4r	.	4r	.	[2cc\	.	.	.	.	.	.	.	.	.	.	4r	.	.	4r	.	.	2cc\	ve-	.
.	.	.	.	(8d\L	.	(8f/L	.	.	.	.	.	.	.	.	.	.	.	.	8d\L	qui	.	8f/L	qui	.	.	.	.
.	.	.	.	8f\J)	.	8a/J)	.	.	.	.	.	.	.	.	.	.	.	.	8f\J	.	.	8a/J	.	.	.	.	.
=4	=4	=4	=4	=4	=4	=4	=4	=4	=4	=4	=4	=4	=4	=4	=4	=4	=4	=4	=4	=4	=4	=4	=4	=4	=4	=4	=4
1r	.	2r	.	(8e\L	.	(8g/L	.	8cc\]	.	1ryy	1ryy	1r	1r	.	2r	.	.	.	4e\	ve-	.	8g/L	ve-	.	4cc\	-nit	.
.	.	.	.	8c\J)	.	8b-/J)	.	8r	.	.	.	.	.	.	.	.	.	.	.	.	.	8b-/J	.	.	.	.	.
.	.	.	.	8f\	.	8a/	.	(8.cc/L	.	.	.	.	.	.	.	.	.	.	8f\	-nit	.	8a/	-nit	.	8cc\L	qui	.
.	.	.	.	8r	.	8r	.	.	.	.	.	.	.	.	.	.	.	.	8r	.	.	8r	.	.	8ff\J	.	.
.	.	.	.	.	.	.	.	16f/Jk)	.	.	.	.	.	.	.	.	.	.	.	.	.	.	.	.	.	.	.
.	.	4r	.	4r	.	4r	.	[2f/	.	.	.	.	.	.	4r	.	.	.	4r	.	.	4r	.	.	(>[<2ff\	ve-	.
.	.	4F\	.	8A/L	.	8f/L	.	.	.	.	.	.	.	.	4F\	qui	.	.	8A/L	in	.	8f/L	in	.	.	.	.
.	.	.	.	8B-/J	.	8g/J	.	.	.	.	.	.	.	.	.	.	.	.	8B-/J	.	.	8g/J	.	.	.	.	.
=5	=5	=5	=5	=5	=5	=5	=5	=5	=5	=5	=5	=5	=5	=5	=5	=5	=5	=5	=5	=5	=5	=5	=5	=5	=5	=5	=5
1r	.	1C	.	4c\	.	4a/	.	4.f/]	.	1ryy	1ryy	1r	1r	.	1C	ve-	.	.	4c\	no-	.	4a/	no-	.	2ff\_<	.	.
.	.	.	.	8d\L	.	8b-/L	.	.	.	.	.	.	.	.	.	.	.	.	8d\	-mi-	.	8b-/	-mi-	.	.	.	.
.	.	.	.	8c\J	.	8a/J	.	8c/	.	.	.	.	.	.	.	.	.	.	8c\	-ne	.	8a/	-ne	.	.	.	.
!	!	!	!	!	!	!LO:N:vis=1	!	!	!	!	!	!	!	!	!	!	!	!	!	!	!	!	!	!	!	!	!
.	.	.	.	2B-/	.	2g/	.	[2c/	.	.	.	.	.	.	.	.	.	.	4.B-\	Do-	.	4.g/	Do-	.	8ff\L]	.	.
.	.	.	.	.	.	.	.	.	.	.	.	.	.	.	.	.	.	.	.	.	.	.	.	.	8ee\	.	.
.	.	.	.	.	.	.	.	.	.	.	.	.	.	.	.	.	.	.	.	.	.	.	.	.	8dd\	.	.
.	.	.	.	.	.	.	.	.	.	.	.	.	.	.	.	.	.	.	8B-\	-mi-	.	8g/	-mi-	.	8ee\J)	.	.
=6	=6	=6	=6	=6	=6	=6	=6	=6	=6	=6	=6	=6	=6	=6	=6	=6	=6	=6	=6	=6	=6	=6	=6	=6	=6	=6	=6
1r	.	4FF/	.	4A/	.	4f/	.	8c/]	.	1ryy	1ryy	1r	1r	.	4FF/	-nit	.	.	4A/	-ni	.	4f/	-ni	.	4ff\	-nit	.
.	.	.	.	.	.	.	.	8r	.	.	.	.	.	.	.	.	.	.	.	.	.	.	.	.	.	.	.
.	.	4r	.	4r	.	4r	.	(8a\L	.	.	.	.	.	.	4r	.	.	.	4r	.	.	4r	.	.	8a\L	in	.
.	.	.	.	.	.	.	.	8cc\J)	.	.	.	.	.	.	.	.	.	.	.	.	.	.	.	.	8cc\J	.	.
.	.	4r	.	4r	.	4r	.	[2cc\	.	.	.	.	.	.	4r	.	.	.	4r	.	.	4r	.	.	[2cc\	no-	.
.	.	4F\	.	(8F/L	.	(8d/L	.	.	.	.	.	.	.	.	4F\	in	.	.	8F/L	in	.	8d/L	in	.	.	.	.
.	.	.	.	8A/J)	.	8f/J)	.	.	.	.	.	.	.	.	.	.	.	.	8A/J	.	.	8f/J	.	.	.	.	.
=7	=7	=7	=7	=7	=7	=7	=7	=7	=7	=7	=7	=7	=7	=7	=7	=7	=7	=7	=7	=7	=7	=7	=7	=7	=7	=7	=7
*	*	*	*	*	*	*	*	*	*	*	*	*	*	*	*2\right	*	*	*	*	*	*	*	*	*	*	*	*
1r	.	[1F	.	8G'/L	.	8e'/L	.	8cc\]	.	1ryy	1ryy	1r	1r	.	2F\	no-	.	.	8G/	no-	.	8e/	no-	.	4cc\]	.	.
.	.	.	.	8B-'/J	.	8c'/J	.	8r	.	.	.	.	.	.	.	.	.	.	8B-/	-mi-	.	8c/	-mi-	.	.	.	.
.	.	.	.	8A/	.	8f/	.	(8a\L	.	.	.	.	.	.	.	.	.	.	4A/	-ne	.	4f/	-ne	.	8a\L	-mi-	.
.	.	.	.	8r	.	8r	.	8cc\J)	.	.	.	.	.	.	.	.	.	.	.	.	.	.	.	.	8cc\J	.	.
!	!	!	!	!	!	!	!	!	!	!	!	!	!	!	!	!	!	!	!	!	!	!	!	!	!LO:TX:t=P:problem=brak początku łuku	!	!
.	.	.	.	4r	.	4r	.	2cc\	.	.	.	.	.	.	4F\	-mi-	.	.	4r	.	.	4r	.	.	[2cc\	-ne	.
.	.	.	.	(8F/L	.	(8d/L	.	.	.	.	.	.	.	.	4F\	-ne	.	.	8F/L	in	.	8d/L	in	.	.	.	.
*	*	*	*	*	*	*	*	*	*	*	*	*	*	*	*	*	*	*	*	*Xij	*	*	*	*	*	*	*
.	.	.	.	8A/J)	.	8f/J)	.	.	.	.	.	.	.	.	.	.	.	.	8A/J	.	.	8f/J	.	.	.	.	.
!!LO:PB:g=original
=8	=8	=8	=8	=8	=8	=8	=8	=8	=8	=8	=8	=8	=8	=8	=8	=8	=8	=8	=8	=8	=8	=8	=8	=8	=8	=8	=8
1r	.	1F]	.	(8G|/L	.	(8e|/L	.	8cc\	.	1ryy	1ryy	1r	1r	.	2F\	no-	.	.	8G/	no-	.	8d/	no-	.	4cc\]	.	.
*	*	*	*	*	*	*	*	*	*	*	*	*	*	*	*	*	*	*	*	*ij	*	*	*	*	*	*	*
.	.	.	.	8B-|/J)	.	8g|/J)	.	8r	.	.	.	.	.	.	.	.	.	.	8B-/	-mi-	.	8g/	-mi-	.	.	.	.
.	.	.	.	4A/	.	4f/	.	(8cc\L	.	.	.	.	.	.	.	.	.	.	4A/	-ne	.	4f/	-ne	.	8cc\L	in	.
*	*	*	*	*	*	*	*	*	*	*	*	*	*	*	*	*	*	*	*	*Xij	*	*	*	*	*	*	*
.	.	.	.	.	.	.	.	8ee-X\J)	.	.	.	.	.	.	.	.	.	.	.	.	.	.	.	.	8ee-X\J	.	.
.	.	.	.	4r	.	4r	.	4ee-\	.	.	.	.	.	.	4F\	-mi-	.	.	4r	.	.	4r	.	.	[<2ee-\	no-	.
.	.	.	.	(8A/L	.	(8f/L	.	4r	.	.	.	.	.	.	4F\	-ne	.	.	8A/L	in	.	8f/L	in	.	.	.	.
.	.	.	.	8B-/J)	.	8g/J)	.	.	.	.	.	.	.	.	.	.	.	.	8B-/J	.	.	8g/J	.	.	.	.	.
=9	=9	=9	=9	=9	=9	=9	=9	=9	=9	=9	=9	=9	=9	=9	=9	=9	=9	=9	=9	=9	=9	=9	=9	=9	=9	=9	=9
*	*	*	*	*	*	*	*	*	*	*	*	*	*	*	*	*	*	*	*	*ij	*	*	*	*	*	*	*
1r	.	2C/	.	4c/	.	4a/	.	2r	.	1ryy	1ryy	1r	1r	.	2C/	Do-	.	.	4c\	no-	.	4a/	no-	.	2ee-\_>	.	.
.	.	.	.	(8d|\L	.	(8b-|/L	.	.	.	.	.	.	.	.	.	.	.	.	8d\	-mi-	.	8b-/	-mi-	.	.	.	.
.	.	.	.	8c|\J)	.	8a|/J)	.	.	.	.	.	.	.	.	.	.	.	.	8c\	-ne	.	8a/	-ne	.	.	.	.
.	.	2D/	.	4B-/	.	4g/	.	4r	.	.	.	.	.	.	2D/	-mi-	.	.	4B-\	Do-	.	4g/	Do-	.	8ee-\L]	.	.
.	.	.	.	.	.	.	.	.	.	.	.	.	.	.	.	.	.	.	.	.	.	.	.	.	8dd\J	.	.
.	.	.	.	4A/	.	4f#X/	.	[4d/	.	.	.	.	.	.	.	.	.	.	4A\	-mi-	.	4f#X/	-mi-	.	8dd\	-mi-	.
*	*	*	*	*	*	*	*	*	*	*	*	*	*	*	*	*	*	*	*	*Xij	*	*	*	*	*	*	*
.	.	.	.	.	.	.	.	.	.	.	.	.	.	.	.	.	.	.	.	.	.	.	.	.	8cc\	-ne	.
=10	=10	=10	=10	=10	=10	=10	=10	=10	=10	=10	=10	=10	=10	=10	=10	=10	=10	=10	=10	=10	=10	=10	=10	=10	=10	=10	=10
1r	.	8GG/	.	8B-/	.	8g/	.	8d/]	.	1ryy	1ryy	1r	1r	.	8GG/	-ni	.	.	8B-\	ni	.	8g/	-ni	.	8.b-/	Do-	.
.	.	8r	.	8r	.	8r	.	8r	.	.	.	.	.	.	8r	.	.	.	8r	.	.	8r	.	.	.	.	.
.	.	.	.	.	.	.	.	.	.	.	.	.	.	.	.	.	.	.	.	.	.	.	.	.	16a/	-mi-	.
.	.	(8B-\L	.	4r	.	4r	.	4r	.	.	.	.	.	.	4r	.	.	.	8B-\L	qui	.	4r	.	.	4g/	-ni	.
.	.	8d\J)	.	.	.	.	.	.	.	.	.	.	.	.	.	.	.	.	8d\J	.	.	.	.	.	.	.	.
*	*	*2\right	*	*	*	*	*	*	*	*	*	*	*	*	*	*	*	*	*2\right	*	*	*	*	*	*	*	*
.	.	[2d\	.	2r	.	4r	.	4r	.	.	.	.	.	.	2r	.	.	.	[2d\	ve-	.	4r	.	.	4r	.	.
.	.	.	.	.	.	(8f#X/L	.	(8a\L	.	.	.	.	.	.	.	.	.	.	.	.	.	8f#X/L	qui	.	8a\L	qui	.
.	.	.	.	.	.	8a/J)	.	8cc\J)	.	.	.	.	.	.	.	.	.	.	.	.	.	8a/J	.	.	8cc\J	.	.
=11	=11	=11	=11	=11	=11	=11	=11	=11	=11	=11	=11	=11	=11	=11	=11	=11	=11	=11	=11	=11	=11	=11	=11	=11	=11	=11	=11
*	*	*	*	*	*	*	*	*	*	*	*	*	*	*	*	*	*	*	*	*	*	*	*ij	*	*	*	*
1r	.	4d\]	.	1r	.	4g/	.	4b-\	.	1ryy	1ryy	1r	1r	.	1r	.	.	.	4d\]	.	.	4g/	ve-	.	4b-/	ve-	.
.	.	(8B-'\L	.	.	.	8d/	.	8g/	.	.	.	.	.	.	.	.	.	.	8B-/	-nit	.	8d/	-nit	.	8g/	-nit	.
.	.	8d'\J)	.	.	.	8r	.	8r	.	.	.	.	.	.	.	.	.	.	8d/	in	.	8r	.	.	8r	.	.
.	.	[2d\	.	.	.	4r	.	4r	.	.	.	.	.	.	.	.	.	.	[2d\	no-	.	4r	.	.	4r	.	.
.	.	.	.	.	.	(8f#X/L	.	(8a/L	.	.	.	.	.	.	.	.	.	.	.	.	.	8f#X/L	in	.	8a/L	in	.
.	.	.	.	.	.	8a/J)	.	8cc/J)	.	.	.	.	.	.	.	.	.	.	.	.	.	8a/J	.	.	8cc/J	.	.
=12	=12	=12	=12	=12	=12	=12	=12	=12	=12	=12	=12	=12	=12	=12	=12	=12	=12	=12	=12	=12	=12	=12	=12	=12	=12	=12	=12
1r	.	4d\]	.	4r	.	(2g/	.	4b-\	.	1ryy	1ryy	1r	1r	.	4r	.	.	.	2d\]	.	.	2g/	no-	.	2b-\	no-	.
*	*	*	*	*2\right	*	*	*	*	*	*	*	*	*	*	*	*	*	*	*	*	*	*	*	*	*	*	*
.	.	(8G\L	.	2d\	.	.	.	2b-\	.	.	.	.	.	.	8G\L	in	.	.	.	.	.	.	.	.	.	.	.
.	.	8A\J)	.	.	.	.	.	.	.	.	.	.	.	.	8A\J	.	.	.	.	.	.	.	.	.	.	.	.
.	.	2B-\	.	.	.	4fn/)	.	.	.	.	.	.	.	.	[2B-\	no-	.	.	4d\	-mi-	.	4fn/	-mi-	.	4b-\	-mi-	.
.	.	.	.	4c#X\	.	4en/	.	4b-\	.	.	.	.	.	.	.	.	.	.	4c#X\	-ne	.	4en/	-ne	.	4b-\	-ne	.
=13	=13	=13	=13	=13	=13	=13	=13	=13	=13	=13	=13	=13	=13	=13	=13	=13	=13	=13	=13	=13	=13	=13	=13	=13	=13	=13	=13
1r	.	1F	.	2d\	.	(>4f/	.	2ff\	.	1ryy	1ryy	1r	1r	.	4B-\]	.	.	.	(2d\	Do-	.	[2f/	Do-	.	(2b-\	Do-	.
.	.	.	.	.	.	4b-\)	.	.	.	.	.	.	.	.	8c\	-mi-	.	.	.	.	.	.	.	.	.	.	.
.	.	.	.	.	.	.	.	.	.	.	.	.	.	.	8B-\	-ne	.	.	.	.	.	.	.	.	.	.	.
.	.	.	.	2e-X\	.	4.cc\	.	2f/	.	.	.	.	.	.	8B-\L	Do-	.	.	4.e-X\)	.	.	4.f/]	.	.	4.cc\)	.	.
.	.	.	.	.	.	.	.	.	.	.	.	.	.	.	8A\	.	.	.	.	.	.	.	.	.	.	.	.
.	.	.	.	.	.	.	.	.	.	.	.	.	.	.	8G\J	.	.	.	.	.	.	.	.	.	.	.	.
.	.	.	.	.	.	8cc\	.	.	.	.	.	.	.	.	8A\	-mi	.	.	8e-\	-mi-	.	8f/	-mi-	.	8cc\	-mi-	.
*	*	*	*	*	*	*	*	*	*	*	*	*	*	*	*	*	*	*	*	*	*	*	*Xij	*	*	*	*
!!LO:PB:g=original
=14	=14	=14	=14	=14	=14	=14	=14	=14	=14	=14	=14	=14	=14	=14	=14	=14	=14	=14	=14	=14	=14	=14	=14	=14	=14	=14	=14
!	!	!	!	!	!	!	!	!	!	!	!	!LO:TX:a:t=odtąd zniknąć	!	!	!	!	!	!	!	!	!	!	!	!	!	!	!
1r	.	4B-\	.	4d\	.	4b-\	.	8f/	.	1ryy	1ryy	1ryy	1ryy	.	4B-\	ni	.	.	4d\	-ni	.	8f/	ni	.	4b-\	-ni	.
.	.	.	.	.	.	.	.	8r	.	.	.	.	.	.	.	.	.	.	.	.	.	8r	.	.	.	.	.
.	.	4r	.	4r	.	4r	.	(8d|/L	.	.	.	.	.	.	4r	.	.	.	4r	.	.	8d/	Be-	.	4r	.	.
.	.	.	.	.	.	.	.	8f|/J)	.	.	.	.	.	.	.	.	.	.	.	.	.	8f/	-ne-	.	.	.	.
.	.	4r	.	4r	.	2r	.	[2f/	.	.	.	.	.	.	4r	.	.	.	4r	.	.	[2f/	-di-	.	2r	.	.
.	.	(8G|\L	.	(8B-|\L	.	.	.	.	.	.	.	.	.	.	8G\	Be	.	.	8B-\	Be-	.	.	.	.	.	.	.
.	.	8B-|\J)	.	8d|\J)	.	.	.	.	.	.	.	.	.	.	8B-\	.	.	.	8d\	-ne-	.	.	.	.	.	.	.
=15	=15	=15	=15	=15	=15	=15	=15	=15	=15	=15	=15	=15	=15	=15	=15	=15	=15	=15	=15	=15	=15	=15	=15	=15	=15	=15	=15
1r	.	(4A\	.	(4c\	.	1r	.	8f/]	.	1ryy	1ryy	1ryy	1ryy	.	4A\	.	.	.	4c\	-di-	.	4f/]	.	.	1r	.	.
.	.	.	.	.	.	.	.	8r	.	.	.	.	.	.	.	.	.	.	.	.	.	.	.	.	.	.	.
!	!	!	!	!	!	!	!	!	!	!	!	!	!	!	!	!	!	!	!	!	!	!LO:TX:t=P:problem=pauza 16r?	!	!	!	!	!
.	.	8B-\)	.	8d\)	.	.	.	8.d/L	.	.	.	.	.	.	4B-\	.	.	.	4d\	-ctus	.	8d/	-ctus	.	.	.	.
!	!	!	!	!	!	!	!	!	!	!	!	!	!	!	!	!	!	!	!	!	!	!LO:N:vis=16	!	!	!	!	!
.	.	8r	.	8r	.	.	.	.	.	.	.	.	.	.	.	.	.	.	.	.	.	8f/	qui	.	.	.	.
.	.	.	.	.	.	.	.	16f/Jk	.	.	.	.	.	.	.	.	.	.	.	.	.	.	.	.	.	.	.
.	.	4r	.	4r	.	.	.	[2f/	.	.	.	.	.	.	4r	.	.	.	4r	.	.	[2f/	ve-	.	.	.	.
.	.	(8G\L	.	(8B-\L	.	.	.	.	.	.	.	.	.	.	8G\L	qui	.	.	8B-\L	qui	.	.	.	.	.	.	.
.	.	8B-\J)	.	8d\J)	.	.	.	.	.	.	.	.	.	.	8B-\J	.	.	.	8d\J	.	.	.	.	.	.	.	.
=16	=16	=16	=16	=16	=16	=16	=16	=16	=16	=16	=16	=16	=16	=16	=16	=16	=16	=16	=16	=16	=16	=16	=16	=16	=16	=16	=16
1r	.	(8A\L	.	4c\	.	4r	.	8f/]	.	1ryy	1ryy	1ryy	1ryy	.	8A\L	.	.	.	4c\	ve-	.	2.f/]	.	.	4r	.	.
.	.	8F\J)	.	.	.	.	.	8r	.	.	.	.	.	.	8F\J	.	.	.	.	.	.	.	.	.	.	.	.
!	!	!	!	!	!	!	!	!LO:TX:t=P:problem=mixed beam	!	!	!	!	!	!	!	!	!	!	!	!	!	!	!	!	!LO:TX:t=P:problem=mixed beam	!	!
.	.	2B-\	.	2d\	.	2f/	.	(8f/L	.	.	.	.	.	.	2B-\	.	.	.	2d\	-nit	.	.	.	.	8f/L	in	.
.	.	.	.	.	.	.	.	8dd\J)	.	.	.	.	.	.	.	.	.	.	.	.	.	.	.	.	8dd\J	.	.
.	.	.	.	.	.	.	.	[2dd\	.	.	.	.	.	.	.	.	.	.	.	.	.	.	.	.	[2dd\	no-	.
.	.	4A\	.	4c\	.	4f#X/	.	.	.	.	.	.	.	.	4A\	in	.	.	4c\	in	.	8f#X/	-nit	.	.	.	.
.	.	.	.	.	.	.	.	.	.	.	.	.	.	.	.	.	.	.	.	.	.	8a/	in	.	.	.	.
=17	=17	=17	=17	=17	=17	=17	=17	=17	=17	=17	=17	=17	=17	=17	=17	=17	=17	=17	=17	=17	=17	=17	=17	=17	=17	=17	=17
1r	.	2G\	.	4B-\	.	4g/	.	4dd\]	.	1ryy	1ryy	1ryy	1ryy	.	4G\	no	.	.	4B-\	no	.	4d/	no-	.	4dd\]	.	.
.	.	.	.	(8c\L	.	4d/	.	(8cc\L	.	.	.	.	.	.	8G\	.	.	.	8c\	.	.	8d/	-mi-	.	8cc\	-mi-	.
.	.	.	.	8d\J)	.	.	.	8b-\J	.	.	.	.	.	.	8G\	.	.	.	8d\	.	.	8d/	-ne	.	8b-\	-ne	.
.	.	4C/	.	4c\	.	4f/	.	8a\L	.	.	.	.	.	.	4C/	.	.	.	4c\	.	.	4f/	Do-	.	(8a/L	Do-	.
.	.	.	.	.	.	.	.	8cc\	.	.	.	.	.	.	.	.	.	.	.	.	.	.	.	.	8cc/J)	.	.
.	.	4C/	.	(8G/L	.	4en/	.	8b-\	.	.	.	.	.	.	4C/	.	.	.	8G/L	.	.	4en/	-mi-	.	(8b-/L	-mi-	.
.	.	.	.	8B-/J)	.	.	.	8g\J)	.	.	.	.	.	.	.	.	.	.	8B-/J	.	.	.	.	.	8g/J)	.	.
=18	=18	=18	=18	=18	=18	=18	=18	=18	=18	=18	=18	=18	=18	=18	=18	=18	=18	=18	=18	=18	=18	=18	=18	=18	=18	=18	=18
1r	.	8D/	.	8A/	.	8f/	.	8f/	.	1ryy	1ryy	1ryy	1ryy	.	8D/	ni	.	.	8A/	ni	.	8f/	-ni	.	8f/	-ni	.
.	.	8r	.	8r	.	8r	.	8r	.	.	.	.	.	.	8r	.	.	.	8r	.	.	8r	.	.	8r	.	.
!	!	!	!LO:DY:b:rj	!	!LO:DY:b:rj	!	!LO:DY:b:rj	!	!LO:DY:b:rj	!	!	!	!	!	!	!	!	!LO:DY:a:rj	!	!	!LO:DY:a:rj	!	!	!LO:DY:a:rj	!	!	!LO:DY:a:rj
.	.	(4d'\	mf	(4f|\	mf	(4a|/	mf	4ff|\	mf	.	.	.	.	.	4d\	.	.	f	4f\	.	f	4a/	.	f	4ff\	in	f
.	.	4d'\	.	4f|\	.	4a|/	.	4ff^\	.	.	.	.	.	.	4d^\	.	.	.	4f^\	.	.	4a^/	.	.	4ff^\	no-	.
.	.	4d'\)	.	4a|\)	.	4f|/)	.	8ee\L	.	.	.	.	.	.	8d\	.	.	.	8f\	.	.	8a/	.	.	8ee\	-mi-	.
.	.	.	.	.	.	.	.	8dd\J	.	.	.	.	.	.	8d\	.	.	.	8f\	.	.	8a/	.	.	8dd\	-ne	.
=19	=19	=19	=19	=19	=19	=19	=19	=19	=19	=19	=19	=19	=19	=19	=19	=19	=19	=19	=19	=19	=19	=19	=19	=19	=19	=19	=19
1ryy	.	(2d\	.	(2g\	.	2.a/	.	4ee\	.	1ryy	1ryy	1ryy	1ryy	.	2d\	.	.	.	2g\	.	.	2.a/	.	.	2ee\	Do-	.
.	.	.	.	.	.	.	.	4e/	.	.	.	.	.	.	.	.	.	.	.	.	.	.	.	.	.	.	.
.	.	2c#X\)	.	2e\)	.	.	.	2a/	.	.	.	.	.	.	2c#X\	.	.	.	2e\	.	.	.	.	.	2a/	-mi-	.
.	.	.	.	.	.	4g/	.	.	.	.	.	.	.	.	.	.	.	.	.	.	.	4a/	.	.	.	.	.
!!LO:PB:g=original
=20	=20	=20	=20	=20	=20	=20	=20	=20	=20	=20	=20	=20	=20	=20	=20	=20	=20	=20	=20	=20	=20	=20	=20	=20	=20	=20	=20
1r	.	8d\	.	8f\	.	8f/	.	8a/	.	1ryy	1ryy	1ryy	1ryy	.	8d\	ni	.	.	8f\	ni	.	8f/	ni	.	8a/	-ni,	.
.	.	8r	.	8r	.	8r	.	8r	.	.	.	.	.	.	8r	.	.	.	8r	.	.	8r	.	.	8r	.	.
*	*	*	*	*	*	*	*	*	*	*	*	*	*	*	*	*ij	*	*	*	*ij	*	*	*ij	*	*	*	*
!	!	!	!	!	!	!	!	!	!	!	!	!	!	!	!	!	!	!LO:DY:a:rj	!	!	!LO:DY:a:rj	!	!	!LO:DY:a:rj	!	!	!LO:DY:a:rj
.	.	4r	.	4r	.	4r	.	4r	.	.	.	.	.	.	4D\	in	.	p	4A/	in	p	4f/	in	p	4dd\	in	p
.	.	2r	.	2r	.	2r	.	2r	.	.	.	.	.	.	4D\	no-	.	.	4A/	no-	.	4f/	no-	.	4dd\	no-	.
.	.	.	.	.	.	.	.	.	.	.	.	.	.	.	8D\	-mi-	.	.	8A/	-mi-	.	8f/	-mi-	.	8cc\	-mi-	.
.	.	.	.	.	.	.	.	.	.	.	.	.	.	.	8D\	-ne	.	.	8B-/	-ne	.	8f/	-ne	.	8b-\	-ne	.
=21	=21	=21	=21	=21	=21	=21	=21	=21	=21	=21	=21	=21	=21	=21	=21	=21	=21	=21	=21	=21	=21	=21	=21	=21	=21	=21	=21
1r	.	1r	.	1r	.	1r	.	1r	.	1ryy	1ryy	1ryy	1ryy	.	2.Cn/	Do-	.	.	2.cn\	Do-	.	2f/	Do-	.	2.a/	Do-	.
.	.	.	.	.	.	.	.	.	.	.	.	.	.	.	.	.	.	.	.	.	.	2e/	-mi-	.	.	.	.
.	.	.	.	.	.	.	.	.	.	.	.	.	.	.	4BB-/	-mi-	.	.	4c\	-mi-	.	.	.	.	4g/	-mi-	.
*	*	*	*	*	*	*	*	*	*	*	*	*	*	*	*	*Xij	*	*	*	*Xij	*	*	*Xij	*	*	*	*
=22	=22	=22	=22	=22	=22	=22	=22	=22	=22	=22	=22	=22	=22	=22	=22	=22	=22	=22	=22	=22	=22	=22	=22	=22	=22	=22	=22
1r	.	1r	.	1r	.	1r	.	4r	.	1ryy	1ryy	1ryy	1ryy	.	4AA/	-ni	.	.	8c\	-ni	.	8f/	-ni	.	8cc\	-ni	.
.	.	.	.	.	.	.	.	.	.	.	.	.	.	.	.	.	.	.	8r	.	.	8r	.	.	8r	.	.
!	!	!	!	!	!	!	!	!	!LO:DY:b:rj	!	!	!	!	!	!	!	!	!	!	!	!	!	!	!	!	!	!
.	.	.	.	.	.	.	.	(>4cc\	p	.	.	.	.	.	4r	.	.	.	4r	.	.	4r	.	.	8cc\L	in	.
.	.	.	.	.	.	.	.	.	.	.	.	.	.	.	.	.	.	.	.	.	.	.	.	.	8ff\J	.	.
.	.	.	.	.	.	.	.	4a/	.	.	.	.	.	.	2r	.	.	.	2r	.	.	4r	.	.	[2ff\	no-	.
.	.	.	.	.	.	.	.	4f/	.	.	.	.	.	.	.	.	.	.	.	.	.	(8f/L	in	.	.	.	.
.	.	.	.	.	.	.	.	.	.	.	.	.	.	.	.	.	.	.	.	.	.	8a/J)	.	.	.	.	.
=23	=23	=23	=23	=23	=23	=23	=23	=23	=23	=23	=23	=23	=23	=23	=23	=23	=23	=23	=23	=23	=23	=23	=23	=23	=23	=23	=23
1r	.	4r	.	4r	.	1r	.	4c/	.	1ryy	1ryy	1ryy	1ryy	.	2r	.	.	.	4r	.	.	[1a	no-	.	1ff_	.	.
!	!	!	!	!	!LO:DY:b:rj	!	!	!	!	!	!	!	!	!	!	!	!	!	!	!	!	!	!	!	!	!	!
.	.	(4A\	p	(4A/	p	.	.	8A'/)	.	.	.	.	.	.	.	.	.	.	(8A/L	in	.	.	.	.	.	.	.
.	.	.	.	.	.	.	.	8r	.	.	.	.	.	.	.	.	.	.	8c/J)	.	.	.	.	.	.	.	.
.	.	4F\	.	4G/	.	.	.	2r	.	.	.	.	.	.	8F\L	Be-	.	.	2c\	no-	.	.	.	.	.	.	.
.	.	.	.	.	.	.	.	.	.	.	.	.	.	.	8A\J	.	.	.	.	.	.	.	.	.	.	.	.
.	.	4C\)	.	4C/)	.	.	.	.	.	.	.	.	.	.	8C\L	-ne-	.	.	.	.	.	.	.	.	.	.	.
.	.	.	.	.	.	.	.	.	.	.	.	.	.	.	8F\J	.	.	.	.	.	.	.	.	.	.	.	.
=24	=24	=24	=24	=24	=24	=24	=24	=24	=24	=24	=24	=24	=24	=24	=24	=24	=24	=24	=24	=24	=24	=24	=24	=24	=24	=24	=24
!	!	!	!	!	!	!	!LO:DY:b:rj	!	!	!	!	!	!	!	!	!	!	!	!	!	!	!	!	!	!	!	!
1r	.	(4F\	.	(>4c\	.	(4a/	p	(>4ff\	.	1ryy	1ryy	1ryy	1ryy	.	(4F\	-di-	.	.	(>4c\	.	.	(4a/]	.	.	(4ff\]	.	.
.	.	4E\)	.	4G/	.	4g/	.	4cc\	.	.	.	.	.	.	4E\)	.	.	.	4G/)	.	.	4g/)	.	.	4cc\)	.	.
.	.	(8D/L	.	4A/)	.	4f/)	.	4a\	.	.	.	.	.	.	8D/L	-ctus	.	.	4A/	-mi-	.	4f/	-mi-	.	4a/	-mi-	.
.	.	8C/)	.	.	.	.	.	.	.	.	.	.	.	.	8C/J	.	.	.	.	.	.	.	.	.	.	.	.
.	.	8BB-|/	.	(8d\L	.	4f/	.	4f/)	.	.	.	.	.	.	8BB-/L	qui	.	.	8d\L	-ne	.	4f/	-ne	.	4f/	-ne	.
.	.	8AA|/J	.	8c\J)	.	.	.	.	.	.	.	.	.	.	8AA/J	.	.	.	8c\J	.	.	.	.	.	.	.	.
=25	=25	=25	=25	=25	=25	=25	=25	=25	=25	=25	=25	=25	=25	=25	=25	=25	=25	=25	=25	=25	=25	=25	=25	=25	=25	=25	=25
1r	.	(2GG/	.	(2B-/	.	1f	.	(2dd\	.	1ryy	1ryy	1ryy	1ryy	.	(2GG/	ve-	.	.	(>2B-\	Do-	.	2.f/	Do-	.	(2dd\	Do-	.
.	.	4BB-/)	.	4G/)	.	.	.	4b-\)	.	.	.	.	.	.	4BB-/	.	.	.	4G/)	.	.	.	.	.	4b-\)	.	.
.	.	4GG/	.	(8B-/L	.	.	.	4dd\	.	.	.	.	.	.	4GG/)	.	.	.	8B-/L	-mi-	.	4f/	-mi-	.	4dd\	-mi-	.
.	.	.	.	8A/J)	.	.	.	.	.	.	.	.	.	.	.	.	.	.	8A/J	.	.	.	.	.	.	.	.
!!LO:PB:g=original
=26	=26	=26	=26	=26	=26	=26	=26	=26	=26	=26	=26	=26	=26	=26	=26	=26	=26	=26	=26	=26	=26	=26	=26	=26	=26	=26	=26
4r	.	8C/	.	8G/	.	8e/	.	8cc\	.	1ryy	1ryy	1ryy	1ryy	.	4C;/	-ni	.	.	4G;/	-ni	.	4e;/	-ni	.	4cc;\	-ni	.
.	.	8r;	.	8r;	.	8r;	.	8r;	.	.	.	.	.	.	.	.	.	.	.	.	.	.	.	.	.	.	.
4r	.	4r	.	4r	.	4r	.	4r	.	.	.	.	.	.	4r	.	.	.	4r	.	.	4r	.	.	4r	.	.
!	!	!	!LO:DY:b:rj:t=ppp.	!	!LO:DY:b:rj	!	!LO:DY:b:rj	!	!LO:DY:b:rj	!	!	!	!	!	!	!	!	!LO:DY:a:rj	!	!	!LO:DY:a:rj	!	!	!LO:DY:a:rj	!	!	!LO:DY:a:rj
2r	.	(4F'\	ppp	(4f'\	ppp	(4cc'\	ppp	(4c'/	ppp	.	.	.	.	.	(4F'\	Be-	.	p	(4A'/	Be-	p	(4f'/	Be-	p	(4cc'\	Be-	p
.	.	4F'\)	.	4f'\)	.	4cc'\)	.	4c'/)	.	.	.	.	.	.	4F'\)	-ne-	.	.	4A'/)	-ne-	.	4f'/)	-ne-	.	4cc'\)	-ne-	.
=27	=27	=27	=27	=27	=27	=27	=27	=27	=27	=27	=27	=27	=27	=27	=27	=27	=27	=27	=27	=27	=27	=27	=27	=27	=27	=27	=27
*	*	*	*	*	*	*2\right	*	*	*	*	*	*	*	*	*	*ij	*	*	*	*ij	*	*	*ij	*	*	*	*
1r	.	(2F\	.	(2a\	.	2cc\	.	2c/	.	1ryy	1ryy	1ryy	1ryy	.	2F\	-dic-	.	.	2c\	-dic-	.	2a/	-dic-	.	2cc\	-dic-	.
.	.	4F'\	.	4g'\	.	4.dd\	.	8Bn/L	.	.	.	.	.	.	(4F'\	-tus	.	.	8Bn\L	-tus	.	4g/	-tus	.	4.dd\	-tus	.
*	*	*	*	*	*	*	*	*	*	*	*	*	*	*	*	*Xij	*	*	*	*Xij	*	*	*Xij	*	*	*	*
.	.	.	.	.	.	.	.	8G/	.	.	.	.	.	.	.	.	.	.	8G\J	.	.	.	.	.	.	.	.
.	.	4F'\)	.	4f'\)	.	.	.	8B/	.	.	.	.	.	.	4F'\	.	.	.	8B\L	.	.	4f/	.	.	.	.	.
.	.	.	.	.	.	8bn\	.	8d/J	.	.	.	.	.	.	.	.	.	.	8d\J	.	.	.	.	.	8bn\	qui	.
=28	=28	=28	=28	=28	=28	=28	=28	=28	=28	=28	=28	=28	=28	=28	=28	=28	=28	=28	=28	=28	=28	=28	=28	=28	=28	=28	=28
1r	.	(4F'\	.	(4e\	.	(4cc|\	.	4c/	.	1ryy	1ryy	1ryy	1ryy	.	4F'\	.	.	.	4c\	.	.	4a/	.	.	4cc\	ve-	.
.	.	4F'\	.	4A|/	.	4c|/	.	(>8f/L	.	.	.	.	.	.	4F'\)	.	.	.	4A/	.	.	4c/	.	.	8f/L	-nit	.
.	.	.	.	.	.	.	.	8a/J	.	.	.	.	.	.	.	.	.	.	.	.	.	.	.	.	8a/J	.	.
.	.	4F'\	.	4A|/	.	4f|/	.	4b-|\	.	.	.	.	.	.	(4F\	.	.	.	(4A'/	.	.	(4f'/	.	.	(4cc'\	be-	.
.	.	4F'\)	.	4A|/)	.	4f|/)	.	4b-|\)	.	.	.	.	.	.	4F\)	.	.	.	4A'/)	.	.	4f'/)	.	.	4cc'\)	-ne-	.
=29	=29	=29	=29	=29	=29	=29	=29	=29	=29	=29	=29	=29	=29	=29	=29	=29	=29	=29	=29	=29	=29	=29	=29	=29	=29	=29	=29
1r	.	(2F\	.	(2A/	.	(2f/	.	2cc\	.	1ryy	1ryy	1ryy	1ryy	.	2F\	.	.	.	2A/	.	.	2f/	.	.	2cc\	-di-	.
.	.	4F'\	.	4G#X'/	.	4f|/	.	(8bn\L	.	.	.	.	.	.	(4F'\	.	.	.	4G#X/	.	.	4f/	.	.	8bn\L	-ctus	.
.	.	.	.	.	.	.	.	8a#X\)	.	.	.	.	.	.	.	.	.	.	.	.	.	.	.	.	8a#X\J	.	.
.	.	4F'\)	.	4G#'/	.	4f|/	.	(8b\	.	.	.	.	.	.	4F'\)	.	.	.	4G#/	.	.	4f/	.	.	8b\L	qui	.
.	.	.	.	.	.	.	.	8dd\J)	.	.	.	.	.	.	.	.	.	.	.	.	.	.	.	.	8dd\J	.	.
=30	=30	=30	=30	=30	=30	=30	=30	=30	=30	=30	=30	=30	=30	=30	=30	=30	=30	=30	=30	=30	=30	=30	=30	=30	=30	=30	=30
1r	.	4F\	.	4A/)	.	4f/)	.	4cc\	.	1ryy	1ryy	1ryy	1ryy	.	2F\	.	.	.	2A/	.	.	2f/	.	.	2cc\	ve-	.
.	.	4r	.	4r	.	4r	.	4r	.	.	.	.	.	.	.	.	.	.	.	.	.	.	.	.	.	.	.
!	!	!	!LO:DY:b:rj	!	!LO:DY:b:rj	!	!LO:DY:b:rj	!	!LO:DY:b:rj	!	!	!	!	!	!	!	!	!	!	!	!	!	!	!	!	!	!
.	.	4F\	f	4c\	f	4a/	f	4cc\	f	.	.	.	.	.	8F\	.	.	.	8A/	.	.	8a/	.	.	8cc\	-nit	.
.	.	.	.	.	.	.	.	.	.	.	.	.	.	.	8r	.	.	.	8r	.	.	8r	.	.	8r	.	.
!	!	!	!	!	!	!	!	!	!	!	!	!	!	!	!	!	!	!LO:DY:a:rj	!	!	!LO:DY:a:rj	!	!	!LO:DY:a:rj	!	!	!LO:DY:a:rj
.	.	8F\L	.	4c\	.	8a/L	.	8dd\L	.	.	.	.	.	.	8F\	.	.	f	8A/	.	f	8a/	.	f	8dd\	be-	f
.	.	8E\J	.	.	.	8g/J	.	8ee\J	.	.	.	.	.	.	8E\	.	.	.	8A/	.	.	8g/	.	.	8ee\	-ne-	.
=31	=31	=31	=31	=31	=31	=31	=31	=31	=31	=31	=31	=31	=31	=31	=31	=31	=31	=31	=31	=31	=31	=31	=31	=31	=31	=31	=31
1r	.	2D^^\	.	2d^^\	.	2f^^/	.	2ff^^\	.	1ryy	1ryy	1ryy	1ryy	.	2D^^\	.	.	.	2A^^/	.	.	2f^^/	.	.	2ff^^\	-di-	.
.	.	4D\	.	4d\	.	4f/	.	4a\	.	.	.	.	.	.	4D\	.	.	.	4d\	.	.	4f/	.	.	4a\	-ctus	.
.	.	8d\L	.	8d\L	.	4f/	.	8b-\L	.	.	.	.	.	.	4ryy	.	.	.	4F/	.	.	4f/	.	.	8b-\L	qui	.
.	.	8c\J	.	8f\J	.	.	.	8cc\J	.	.	.	.	.	.	.	.	.	.	.	.	.	.	.	.	8cc\J	.	.
=32	=32	=32	=32	=32	=32	=32	=32	=32	=32	=32	=32	=32	=32	=32	=32	=32	=32	=32	=32	=32	=32	=32	=32	=32	=32	=32	=32
1r	.	2B-^^\	.	2d^^\	.	2f^^/	.	2dd^^\	.	1ryy	1ryy	1ryy	1ryy	.	2BB-^^/	.	.	.	2B-^^\	.	.	2f^^/	.	.	2dd^^\	ve-	.
.	.	8B-^\	.	4d^\	.	4f^/	.	4f^/	.	.	.	.	.	.	4BB-/	.	.	.	4B-\	.	.	4f/	.	.	4f/	-nit	.
.	.	8r	.	.	.	.	.	.	.	.	.	.	.	.	.	.	.	.	.	.	.	.	.	.	.	.	.
.	.	8B-\L	.	8d\L	.	4f/	.	8g/L	.	.	.	.	.	.	8B-\L	.	.	.	8d\L	.	.	4f/	.	.	8g/L	in	.
.	.	8A\J	.	8c\J	.	.	.	8a/J	.	.	.	.	.	.	8A\J	.	.	.	8c\J	.	.	.	.	.	8a/J	.	.
!!LO:PB:g=original
=33	=33	=33	=33	=33	=33	=33	=33	=33	=33	=33	=33	=33	=33	=33	=33	=33	=33	=33	=33	=33	=33	=33	=33	=33	=33	=33	=33
1r	.	4A\	.	4c/	.	4f/	.	4cc\	.	1ryy	1ryy	1ryy	1ryy	.	4A^\	no-	.	.	4c^\	no-	.	4e^/	no-	.	4cc^\	no-	.
*	*	*	*	*	*	*	*	*	*	*	*	*	*	*	*	*ij	*	*	*	*ij	*	*	*ij	*	*	*	*
.	.	8G\L	.	8G/L	.	4f/	.	8b-/L	.	.	.	.	.	.	8G\	-mi-	.	.	8c\	-mi-	.	8e/	-mi-	.	8b-/	-mi-	.
.	.	8F\J	.	8A/J	.	.	.	8a/J	.	.	.	.	.	.	8F\	-ne	.	.	8c\	-ne	.	8f/	-ne	.	8a/	-ne	.
.	.	4.C/	.	4.B-^/	.	4.c^/ 4.e	.	4.g^/	.	.	.	.	.	.	4.C\	Do-	.	.	4.B-\	Do-	.	4.e/	Do-	.	4.g/	Do-	.
.	.	8F\	.	8A/	.	8f/	.	8f/	.	.	.	.	.	.	8F\	-mi-	.	.	8A\	-mi-	.	8f/	-mi-	.	8f/	-mi-	.
=34	=34	=34	=34	=34	=34	=34	=34	=34	=34	=34	=34	=34	=34	=34	=34	=34	=34	=34	=34	=34	=34	=34	=34	=34	=34	=34	=34
4r;	.	8F\	.	8c/	.	8f/	.	8a/	.	1ryy	1ryy	1ryy	1ryy	.	4F;\	-ni	.	.	4c;\	-ni	.	4f;/	-ni	.	4a;/	-ni	.
.	.	8r;	.	8r;	.	8r;	.	8r;	.	.	.	.	.	.	.	.	.	.	.	.	.	.	.	.	.	.	.
4r	.	4r	.	4r	.	4r	.	4r	.	.	.	.	.	.	4r	.	.	.	4r	.	.	4r	.	.	4r	.	.
!	!	!	!LO:DY:b:t=pp.:rj	!	!LO:DY:b:t=pp.:rj	!	!LO:DY:b:t=pp.:rj	!	!LO:DY:b:rj	!	!	!	!	!	!	!	!	!LO:DY:a:rj	!	!	!LO:DY:a:rj	!	!	!LO:DY:a:rj	!	!	!LO:DY:a:rj
2r	.	(4c'\	pp	(4F'/	pp	4a/	pp	(4cc'\	pp	.	.	.	.	.	(4F'\	be-	.	pp	(4c'\	be-	pp	(4a'/	be-	pp	(4cc'\	be-	pp
.	.	4c'\)	.	4F'/)	.	4a/	.	4cc'\)	.	.	.	.	.	.	4F'\)	-ne-	.	.	4c'\)	-ne-	.	4a'/)	-ne-	.	4cc'\)	-ne-	.
=35	=35	=35	=35	=35	=35	=35	=35	=35	=35	=35	=35	=35	=35	=35	=35	=35	=35	=35	=35	=35	=35	=35	=35	=35	=35	=35	=35
1r	.	2c\	.	(>2F~/	.	2a/	.	(2cc\	.	1ryy	1ryy	1ryy	1ryy	.	2F\	-di-	.	.	2c\	-di-	.	2a/	-di-	.	2ff\	-di-	.
.	.	(8B-\L	.	4F|/	.	(8g/L	.	4cc|\	.	.	.	.	.	.	(4F'\	-ctus	.	.	8B-/L	-ctus	.	8g/L	-ctus	.	(4cc'\	-ctus	.
.	.	8A\)	.	.	.	8f/)	.	.	.	.	.	.	.	.	.	.	.	.	8A/J	.	.	8f/J	.	.	.	.	.
.	.	(8B-\	.	4F/)	.	(8g/	.	4cc|\)	.	.	.	.	.	.	4F'\	qui	.	.	8B-/L	qui	.	8g/L	qui	.	4cc'\)	qui	.
.	.	8d\J)	.	.	.	8b-/J)	.	.	.	.	.	.	.	.	.	.	.	.	8d/J	.	.	8b-/J	.	.	.	.	.
=36	=36	=36	=36	=36	=36	=36	=36	=36	=36	=36	=36	=36	=36	=36	=36	=36	=36	=36	=36	=36	=36	=36	=36	=36	=36	=36	=36
!	!	!	!	!LO:N:vis=1	!	!	!	!	!	!	!	!	!	!	!	!	!	!	!	!	!	!	!	!	!	!	!
1r	.	(4.c\	.	2F/	.	4a/	.	(8dd\L	.	1ryy	1ryy	1ryy	1ryy	.	4F'\	ve-	.	.	4A/	ve-	.	4a/	ve-	.	8dd\L	ve-	.
.	.	.	.	.	.	.	.	8cc\	.	.	.	.	.	.	.	.	.	.	.	.	.	.	.	.	8cc\J	.	.
.	.	.	.	.	.	(4f|/	.	8a\	.	.	.	.	.	.	4F'\)	-nit	.	.	4c\	-nit	.	4f/	-nit	.	8a/L	-nit	.
.	.	8A\	.	.	.	.	.	8f\J)	.	.	.	.	.	.	.	.	.	.	.	.	.	.	.	.	8f/J	.	.
.	.	4F\)	.	(4A'/	.	4f|/	.	(4cc'\	.	.	.	.	.	.	4F\	be-	.	.	(4A'/	be-	.	(4f'/	be-	.	(4cc'\	be-	.
.	.	8C\L	.	4A'/)	.	4f|/)	.	4cc'\)	.	.	.	.	.	.	8C\L	-ne-	.	.	4A'/)	-ne-	.	4f'/)	-ne-	.	4cc'\)	-ne-	.
.	.	8D\J	.	.	.	.	.	.	.	.	.	.	.	.	8D\J	.	.	.	.	.	.	.	.	.	.	.	.
*	*	*	*	*	*	*	*	*	*	*	*	*	*	*	*	*Xij	*	*	*	*	*	*	*	*	*	*	*
=37	=37	=37	=37	=37	=37	=37	=37	=37	=37	=37	=37	=37	=37	=37	=37	=37	=37	=37	=37	=37	=37	=37	=37	=37	=37	=37	=37
*2\right	*	*	*	*	*	*	*	*	*	*	*	*	*	*	*	*	*	*	*	*	*	*	*	*	*	*	*
!	!LO:DY:b:rj:t=ppp.	!	!	!	!	!	!	!	!	!	!	!	!	!	!	!	!	!	!	!	!	!	!	!	!	!	!
(2.E-X\	ppp	(2.E-X\	.	2A^/	.	(2f#X^/	.	2cc^\	.	1ryy	1ryy	1r	1r	.	(2.E-X^\	-di-	.	.	2A^/	-dic-	.	2f#X^/	-dic-	.	2cc^\	-dic-	.
.	.	.	.	(8B-\L	.	4g'/)	.	(8b-\L	.	.	.	.	.	.	.	.	.	.	8B-/L	-tus	.	4g/	-tus	.	8b-\L	-tus	.
.	.	.	.	8c\	.	.	.	8a\	.	.	.	.	.	.	.	.	.	.	8c/J	.	.	.	.	.	8a\J	.	.
4En\	.	4En\	.	8d-X\	.	4g'/	.	8b-\	.	.	.	.	.	.	4En\)	.	.	.	8d-X\L	qui	.	4g/	qui	.	8b-\L	qui	.
.	.	.	.	8B-\J)	.	.	.	8dd-X\J	.	.	.	.	.	.	.	.	.	.	8B-\J	.	.	.	.	.	8dd-X\J	.	.
=38	=38	=38	=38	=38	=38	=38	=38	=38	=38	=38	=38	=38	=38	=38	=38	=38	=38	=38	=38	=38	=38	=38	=38	=38	=38	=38	=38
*	*	*	*	*	*	*	*	*	*	*	*	*^	*^	*	*^	*	*	*	*^	*	*	*^	*	*	*^	*	*
4F\)	.	4F\)	.	4A/	.	4a/	.	4cc\)	.	1ryy	1ryy	2r	2ryy	2r	2ryy	.	4F/	2r	-ctus,	.	.	4A/	2r	ve-	.	4a/	2r	ve-	.	4cc\	2r	ve-	.
*	*	*	*	*	*	*	*	*	*	*	*	*	*ped	*	*	*	*	*	*	*	*	*	*	*	*	*	*	*	*	*	*	*	*
4r	.	4r	.	4r	.	4r	.	4r	.	.	.	.	.	.	.	.	4r	.	.	.	.	4c\	.	-nit	.	4f/	.	-nit	.	4a/	.	-nit	.
*	*	*	*	*	*	*	*	*	*	*	*	*	*	*	*	*	*	*	*	*	*	*	*	*Xij	*	*	*	*Xij	*	*	*	*	*
!	!LO:DY:b:rj	!	!LO:DY:b:rj	!	!LO:DY:b:rj	!	!LO:DY:b:rj	!	!LO:DY:b:rj	!	!	!	!	!	!	!LO:DY:rj	!LO:TX:b:i:t=tutti	!	!	!	!LO:DY:a	!LO:TX:b:i:t=tutti	!	!	!	!LO:TX:a:i:t=tutti	!	!	!	!LO:TX:a:i:t=tutti	!	!	!LO:DY:a
4F\	f	4F\	f	4c\	f	4a/	f	4b-\	f	.	.	4c/	4F\	4cc/	4a\	mf	4F/	4F\	be-	.	f	4c/	4c\	.	.	4a/	4a\	.	.	4cc/	4cc\	be-	f
4E\	.	4E\	.	4c\	.	4g/	.	8dd\L	.	.	.	4c/	4E\	8dd/L	4g\	.	4E/	4E\	-ne	.	.	8d/L	8d\L	.	.	4g/	4g\	.	.	8dd/L	8dd\L	-ne-	.
.	.	.	.	.	.	.	.	8ee\J	.	.	.	.	.	8ee/J	.	.	.	.	.	.	.	8e/J	8e\J	.	.	.	.	.	.	8ee/J	8ee\J	.	.
*	*	*	*	*	*	*	*	*	*	*	*	*	*	*	*	*	*	*	*	*	*	*	*	*	*	*	*	*	*	*v	*v	*	*
=39	=39	=39	=39	=39	=39	=39	=39	=39	=39	=39	=39	=39	=39	=39	=39	=39	=39	=39	=39	=39	=39	=39	=39	=39	=39	=39	=39	=39	=39	=39	=39	=39
*	*	*	*	*	*	*	*	*	*	*	*	*	*	*	*2\right	*	*	*	*	*	*	*	*	*	*	*	*2\right	*	*	*	*	*
2D^^\	.	2D^^\	.	2d^^\	.	2a^^/	.	2ff^^\	.	1ryy	1ryy	2A/ 2d	2D\	2ff/	2f\	.	2D^^/	2D\	.	.	.	2f^^/	2f\	.	.	2a^^/	2a\	.	.	2ff^^\	-di-	.
4D\	.	4D\	.	4d\	.	4f/	.	4a\	.	.	.	4d/	4D\	4a/	4f\	.	4d/	4d\	.	.	.	4f/	4f\	.	.	4a/	4a\	.	.	4a\	-ctus	.
4C\	.	4C\	.	4c\ 4d	.	4f/	.	8b-\L	.	.	.	4c/ 4d	4C\	8b-/L	4e\	.	4c/	4c\	.	.	.	4e/	4e\	.	.	8b-/L	8b-\L	.	.	8b-\L	qui	.
.	.	.	.	.	.	.	.	8cc\J	.	.	.	.	.	8cc/J	.	.	.	.	.	.	.	.	.	.	.	8cc/J	8cc\J	.	.	8cc\J	.	.
*	*	*	*	*	*	*	*	*	*	*	*	*	*	*	*	*	*	*	*	*	*	*v	*v	*	*	*	*	*	*	*	*	*
*	*	*	*	*	*	*	*	*	*	*	*	*	*	*	*	*	*	*	*	*	*	*	*	*	*v	*v	*	*	*	*	*
=40	=40	=40	=40	=40	=40	=40	=40	=40	=40	=40	=40	=40	=40	=40	=40	=40	=40	=40	=40	=40	=40	=40	=40	=40	=40	=40	=40	=40	=40	=40
4.BB-/	.	4.BB-/	.	4.B-\ 4.d	.	4.f/	.	4.dd\	.	1ryy	1ryy	2B-/ 2d	2BB-\	2dd/	2f\	.	2B-^^/	2B-\	.	.	.	2d^^\	.	.	2dd^^\	.	.	2dd^^\	ve-	.
8r	.	8r	.	8r	.	8r	.	8r	.	.	.	.	.	.	.	.	.	.	.	.	.	.	.	.	.	.	.	.	.	.
2r	.	2r	.	2r	.	2r	.	2r	.	.	.	4B-\	4BB-\	4f/	2d\	.	8B-/	8B-\	.	.	.	8d\	.	.	8f/	.	.	8f/	-nit	.
.	.	.	.	.	.	.	.	.	.	.	.	.	.	.	.	.	8r	8ryy	.	.	.	8r	.	.	8r	.	.	8r	.	.
.	.	.	.	.	.	.	.	.	.	.	.	8B-\L	8BB-\L	8g/L	.	.	8B-/L	8B-\L	.	.	.	4d\	.	.	8g/L	.	.	8g/L	in	.
.	.	.	.	.	.	.	.	.	.	.	.	8A\J	8AA\J	8a/J	.	.	8A/J	8A\J	.	.	.	.	.	.	8a/J	.	.	8a/J	.	.
*	*	*	*	*	*	*	*	*	*	*	*	*	*	*	*	*	*v	*v	*	*	*	*	*	*	*	*	*	*	*	*
!!LO:PB:g=original
=41	=41	=41	=41	=41	=41	=41	=41	=41	=41	=41	=41	=41	=41	=41	=41	=41	=41	=41	=41	=41	=41	=41	=41	=41	=41	=41	=41	=41	=41
1ryy	.	1ryy	.	1ryy	.	1ryy	.	1ryy	.	1ryy	1ryy	4ryy	4GG\	4b-/	4d\	.	4G\	.	.	.	(4d\	.	.	4b-/	.	.	4b-/	no-	.
.	.	.	.	.	.	.	.	.	.	.	.	2c\	8C\L	8a/L	4e\	.	8c\	.	.	.	8e\)	.	.	8a/	.	.	8a/	-mi-	.
.	.	.	.	.	.	.	.	.	.	.	.	.	8BB-\J	8g/J	.	.	8c\	.	.	.	8e\	.	.	8g/	.	.	8g/	-ne	.
.	.	.	.	.	.	.	.	.	.	.	.	.	4AA\	4f/	4f\	.	4A\	.	.	.	4c\	.	.	4f/	.	.	4f/	Do-	.
.	.	.	.	.	.	.	.	.	.	.	.	4F\ 4c	4FF\	4a/	4f\	.	4F\	.	.	.	4f\	.	.	4c/	.	.	4a/	-mi-	.
=42	=42	=42	=42	=42	=42	=42	=42	=42	=42	=42	=42	=42	=42	=42	=42	=42	=42	=42	=42	=42	=42	=42	=42	=42	=42	=42	=42	=42	=42
*	*	*	*	*	*	*	*	*	*	*	*	*	*	*	*	*	*^	*	*	*	*^	*	*	*^	*	*	*^	*	*
!	!	!	!	!	!	!	!	!	!	!	!	!	!	!	!	!	!LO:TX:a:i:t=Solo	!	!	!	!	!LO:TX:a:i:t=Solo	!	!	!	!LO:TX:a:i:t=Solo	!	!	!	!LO:TX:a:i:t=Solo	!	!	!
1ryy	.	1ryy	.	1ryy	.	1ryy	.	1ryy	.	1ryy	1ryy	[<2G/ [>2c	[1CC	[2cc/	[2e\	.	[1C	4C\	ne	[[A-	.	2.e/	4e\	.	.	2.g/	4g\	.	.	2.cc/	4cc\	-ni	.
.	.	.	.	.	.	.	.	.	.	.	.	.	.	.	.	.	.	4r	.	.	.	.	4r	.	.	.	4r	.	.	.	4r	.	.
.	.	.	.	.	.	.	.	.	.	.	.	8G/] 8c]	.	8cc/]	8e\]	.	.	2r	.	.	.	.	2r	.	.	.	2r	.	.	.	2r	.	.
.	.	.	.	.	.	.	.	.	.	.	.	8r	.	8r	8r	.	.	.	.	.	.	.	.	.	.	.	.	.	.	.	.	.	.
!	!	!	!	!	!	!	!	!	!	!	!	!	!	!	!	!	!	!	!	!	!	!	!	!	!	!	!	!	!	!LO:TX:t=P:problem=mixed beam	!	!	!
.	.	.	.	.	.	.	.	.	.	.	.	4r	.	4r	4r	.	.	.	.	.	.	4c/	.	.	.	4e/	.	in	.	8g/L	.	in	.
.	.	.	.	.	.	.	.	.	.	.	.	.	.	.	.	.	.	.	.	.	.	.	.	.	.	.	.	.	.	8cc\J	.	.	.
*	*	*	*	*	*	*	*	*	*	*	*	*v	*v	*	*	*	*	*	*	*	*	*	*	*	*	*	*	*	*	*v	*v	*	*
*	*	*	*	*	*	*	*	*	*	*	*	*	*v	*v	*	*	*	*	*	*	*	*	*	*	*	*	*	*	*	*	*
=43	=43	=43	=43	=43	=43	=43	=43	=43	=43	=43	=43	=43	=43	=43	=43	=43	=43	=43	=43	=43	=43	=43	=43	=43	=43	=43	=43	=43	=43	=43
1r	.	1r	.	1r	.	1r	.	1r	.	1ryy	1ryy	1CC_	1r	.	1C]	1r	.	.	.	2e\	1r	.	.	2g/	1r	no-	.	2cc\	no-	.
.	.	.	.	.	.	.	.	.	.	.	.	.	.	.	.	.	.	.	.	4c\	.	.	.	4e/	.	-mi-	.	4g/	-mi-	.
.	.	.	.	.	.	.	.	.	.	.	.	.	.	.	.	.	.	.	.	4c\	.	.	.	8e/	.	-ne	.	8g\L	-ne	.
.	.	.	.	.	.	.	.	.	.	.	.	.	.	.	.	.	.	.	.	.	.	.	.	8c/	.	in	.	8cc\J	.	.
=44	=44	=44	=44	=44	=44	=44	=44	=44	=44	=44	=44	=44	=44	=44	=44	=44	=44	=44	=44	=44	=44	=44	=44	=44	=44	=44	=44	=44	=44	=44
!	!	!	!LO:DY:b:rj	!	!LO:DY:b:rj	!	!LO:DY:b:rj:t=pp.	!	!LO:DY:b:rj	!	!	!	!	!	!	!	!	!	!	!	!	!	!	!	!	!	!	!	!	!
1r	.	2CC/	pp	2c\	pp	[2G/ 2e	pp	(2cc\	pp	1ryy	1ryy	4CC/]	1r	.	2C/	1r	.	-men	.	(2e\	1r	Do-	.	2c/	1r	no-	.	2cc\	Do-	.
.	.	.	.	.	.	.	.	.	.	.	.	4r	.	.	.	.	.	.	.	.	.	.	.	.	.	.	.	.	.	.
.	.	2GG/	.	(4d\	.	2G/] 2d	.	2bn\	.	.	.	2r	.	.	(>[<2G\	.	Do-	a-	.	[2d\	.	.	.	4d/	.	-mi-	.	2bn\	.	.
.	.	.	.	8e\L	.	.	.	.	.	.	.	.	.	.	.	.	.	.	.	.	.	.	.	8e/L	.	-ne	.	.	.	.
.	.	.	.	8f\J)	.	.	.	.	.	.	.	.	.	.	.	.	.	.	.	.	.	.	.	8f/J	.	.	.	.	.	.
=45	=45	=45	=45	=45	=45	=45	=45	=45	=45	=45	=45	=45	=45	=45	=45	=45	=45	=45	=45	=45	=45	=45	=45	=45	=45	=45	=45	=45	=45	=45
2r	.	4.GG/	.	4g\	.	2d/	.	[<2b-X\)	.	1ryy	1ryy	1ryy	1ryy	.	4.G\]	1r	.	.	.	2d\]	1r	.	.	(<4g/	1r	Do-	.	[2b-X/	.	.
.	.	.	.	4f\	.	.	.	.	.	.	.	.	.	.	.	.	.	.	.	.	.	.	.	4f/	.	.	.	.	.	.
.	.	16AA/LL	.	.	.	.	.	.	.	.	.	.	.	.	16A\LL	.	.	-men	.	.	.	.	.	.	.	.	.	.	.	.
.	.	16BB-/JJ	.	.	.	.	.	.	.	.	.	.	.	.	16B-\JJ)	.	.	.	.	.	.	.	.	.	.	.	.	.	.	.
4r	.	2C/	.	4.e^\	.	4c/	.	(8b-/L]	.	.	.	.	.	.	4c/	.	.	men,	.	4c\)	.	.	.	4.e/)	.	.	.	8b-/L]	.	.
.	.	.	.	.	.	.	.	8a/)	.	.	.	.	.	.	.	.	.	.	.	.	.	.	.	.	.	.	.	8a/J	.	.
4C|</	.	.	.	.	.	(8B-/L	.	(8g/	.	.	.	.	.	.	4C/	.	-mi-	a-	.	8B-/L	.	-mi-	.	.	.	.	.	8g/L	-mi-	.
.	.	.	.	8f\	.	8A/J)	.	8f/J)	.	.	.	.	.	.	.	.	.	.	.	8A/J	.	.	.	8f/	.	-mi-	.	8f/J	.	.
=46	=46	=46	=46	=46	=46	=46	=46	=46	=46	=46	=46	=46	=46	=46	=46	=46	=46	=46	=46	=46	=46	=46	=46	=46	=46	=46	=46	=46	=46	=46
*	*	*	*	*	*	*	*	*	*	*	*	*	*	*	*	*	*	*	*	*	*	*	*	*	*	*	*	*^	*	*
4F\	.	4C/	.	4f\	.	4A/	.	4a/	.	1ryy	1ryy	1ryy	1ryy	.	4F/	2r	-ni,	-men]]	.	4A/	2r	-ni.	.	4f/	2r	-ni	.	4a/	2r	-ni	.
!	!	!	!	!	!	!	!	!	!	!	!	!	!	!	!LO:TX:a:i:t=tutti	!	!	!	!	!LO:TX:a:i:t=tutti	!	!	!	!LO:TX:a:i:t=tutti	!	!	!	!	!	!	!
4r	.	4r	.	4r	.	4r	.	4r	.	.	.	.	.	.	4r	.	.	.	.	4r	.	.	.	4r	.	.	.	4r	.	.	.
!	!	!	!	!	!	!	!	!	!	!	!	!	!	!	!	!	!	!	!	!	!	!	!	!	!	!	!LO:DY:a	!LO:TX:a:i:t=tutti	!	!	!LO:DY:a
!	!	!	!	!	!	!	!	!	!	!	!	!	!	!	!	!	!	!	!LO:DY:b:rj	!	!	!	!LO:DY:b:rj	!	!	!	!	!	!	!	!
2r	.	2r	.	2r	.	2r	.	2r	.	.	.	.	.	.	4A/	4A\	Be-	.	ppp	4A/	4A\	Be-	ppp	4a/	4a\	Be-	ppp	4a/	4a\	Be-	ppp
*	*	*	*	*	*	*	*	*	*	*	*	*	*	*	*	*	*ij	*	*	*	*	*ij	*	*	*	*ij	*	*	*	*	*
.	.	.	.	.	.	.	.	.	.	.	.	.	.	.	4F/	4F\	-ne-	.	.	4c/	4c\	-ne-	.	4a/	4a\	-ne-	.	4a/	4a\	-ne-	.
*	*	*	*	*	*	*	*	*	*	*	*	*	*	*	*v	*v	*	*	*	*	*	*	*	*v	*v	*	*	*v	*v	*	*
*	*	*	*	*	*	*	*	*	*	*	*	*	*	*	*	*	*	*	*v	*v	*	*	*	*	*	*	*	*
=47	=47	=47	=47	=47	=47	=47	=47	=47	=47	=47	=47	=47	=47	=47	=47	=47	=47	=47	=47	=47	=47	=47	=47	=47	=47	=47	=47
*	*	*	*	*	*	*	*	*	*	*	*	*^	*	*	*	*	*	*	*	*	*	*	*	*	*	*	*
2r	.	2r	.	2r	.	2r	.	2r	.	1ryy	1ryy	2ryy	2r	2r	.	1C	-dic-	.	.	1c	-dic-	.	1c	-dic-	.	1cc	-di-	.
*	*	*	*	*	*	*	*	*	*	*	*	*	*	*	*	*	*Xij	*	*	*	*Xij	*	*	*Xij	*	*	*	*
!	!LO:DY:b:rj:t=ppp.	!	!LO:DY:b:rj	!	!LO:DY:b:rj:t=ppp.	!	!LO:DY:b:rj	!	!LO:DY:b:rj	!	!	!	!	!	!LO:DY:t=pp.:rj	!	!	!	!	!	!	!	!	!	!	!	!	!
4C/	ppp	4G\	ppp	4C/	ppp	4B-/	ppp	4e/	ppp	.	.	2G/ 2B-	2C\	2e/	pp	.	.	.	.	.	.	.	.	.	.	.	.	.
4r	.	4r	.	4r	.	4r	.	4r	.	.	.	.	.	.	.	.	.	.	.	.	.	.	.	.	.	.	.	.
*	*	*	*	*	*	*	*	*	*	*	*	*v	*v	*	*	*	*	*	*	*	*	*	*	*	*	*	*	*
=48	=48	=48	=48	=48	=48	=48	=48	=48	=48	=48	=48	=48	=48	=48	=48	=48	=48	=48	=48	=48	=48	=48	=48	=48	=48	=48	=48
1FF;	.	1F;	.	1C;	.	1A;	.	1f;	.	1ryy	1ryy	1FF 1C 1A	1f;	.	4F\	-tus.	.	.	4F/	-tus	.	4f/	-tus	.	4f/	-ctus.	.
.	.	.	.	.	.	.	.	.	.	.	.	.	.	.	4r	.	.	.	4r	.	.	4r	.	.	4r	.	.
.	.	.	.	.	.	.	.	.	.	.	.	.	.	.	2r;	.	.	.	2r;	.	.	2r;	.	.	2r;	.	.
!!LO:PB:g=original
==	==	==	==	==	==	==	==	==	==	==	==	==	==	==	==	==	==	==	==	==	==	==	==	==	==	==	==
*-	*-	*-	*-	*-	*-	*-	*-	*-	*-	*-	*-	*-	*-	*-	*-	*-	*-	*-	*-	*-	*-	*-	*-	*-	*-	*-	*-
!!!system-decoration: [(s1,s2,s3,s4)]{(s5,s6)}[(s7,s8)][(s9,s10,s11,s12,s13)]
!!!RDF**kern: < = below
!!!RDF**kern: > = above
!!!RDF**kern: | = vertical stroke
!!!ENC: Marta Chmielewska
!!!END: 2021-07-22
!!!ENC: Andrzej Gręziak
!!!END: 2021-07-20
